X:20
T:Willie Coleman's
M:6/8
L:1/8
R:jig
K:Gmaj
|B2G AGE|GED GBd|edB dgb|age dBA|
|B2G AGE|GED GBd|edB gdB|AGF G3:|
|:~g3 edB|dgb age|~g3 edB|GBd e3|
|~g3 edB|dgb age|dBd gdB|AGF G3:|]
